uploads/2019/01/11/team-spirit-04.svg

<svg height="40" viewBox="0 0 40 40" width="40" xmlns="http://www.w3.org/2000/svg"><g fill="#04de47" fill-rule="evenodd" transform="translate(3 3)"><rect height="2.692308" opacity=".15" rx=".673077" width="31.28" x="1.36" y="25.576923"/><path d="m17 1.34615385c-.4689127.01470504-.9315973.11060985-1.367072.28336538 2.0072508.7295829 3.3588775 2.60079003 3.407072 4.71678846 0 3.02803846-1.50008 5.83571151-3.4 6.77963461.4205057.2157959.8863631.3307518 1.36.3355962 2.491248 0 4.76-3.3913654 4.76-7.11523081-.0578765-2.62776175-2.113332-4.78692003-4.76-5.00015384z" opacity=".15"/><path d="m31.96 24.2307692h-.68v-2.2631538c.0002685-1.0772606-.6482397-2.0509748-1.648592-2.4753077l-7.488024-3.1769231c-.266124-.1120834-.4890541-.3054797-.636208-.5519231-.4721679-.8037963-.8025241-1.6813464-.976888-2.5949807 1.7003184-1.8701565 2.6251479-4.30646863 2.589712-6.82217311-.0652744-3.36763093-2.7244485-6.12513694-6.12-6.34630769-3.4098141.19078015-6.0860589 2.96598811-6.12 6.34630769-.0356106 2.51587142.8891786 4.95239771 2.589576 6.82271151-.1744232.9134484-.5047777 1.7908117-.976888 2.5944423-.1471539.2464434-.370084.4398397-.636208.5519231l-7.487888 3.1769231c-1.00035227.4243329-1.64886048 1.3980471-1.648592 2.4753077v2.2631538h-.68c-1.12666089 0-2.04.9040404-2.04 2.0192308v1.3461538c.00165341 1.0582293.83064178 1.9345945 1.897336 2.0057693 1.33725865.6586839 2.26010324 1.9279928 2.46636 3.3923077 0 .3717301.30444637.6730769.68.6730769s.68-.3013468.68-.6730769c-.08878561-1.2839515-.65854529-2.4888689-1.597728-3.3788462h26.03176c-.9391827.8899773-1.5089424 2.0948947-1.597728 3.3788462 0 .3717301.3044464.6730769.68.6730769s.68-.3013468.68-.6730769c.2152323-1.5161231 1.1935826-2.8203057 2.5976-3.4627116l.007072-.0045769c.8713737-.2464727 1.4729479-1.0337637 1.475328-1.9307885v-1.3461538c0-.5355333-.214928-1.0491325-.5975022-1.4278118-.3825742-.3786792-.9014562-.591419-1.4424978-.591419zm-14.96-22.88461535c2.646668.21323381 4.7021235 2.37239209 4.76 5.00015384 0 3.72386541-2.268752 7.11523081-4.76 7.11523081s-4.76-3.3913654-4.76-7.11523081c.0316366-2.63832455 2.1011211-4.8122197 4.76-5.00015384zm-12.92 20.62146155c-.00023872-.5384648.3241039-1.025137.824296-1.2368462l7.488296-3.176923c.5310161-.2239052.9757745-.6100324 1.269288-1.1019616.4322174-.7302629.7677614-1.5125119.998376-2.3275 1.4239752.9114641 3.2556488.9114641 4.679624 0 .2306371.8147026.5660371 1.5967095.997968 2.3268269.2936668.4922791.738653.8787275 1.269968 1.1029039l7.487888 3.1769231c.5001012.2116707.8244258.6982099.824296 1.2365769v2.2631538h-12.24v-2.8158846c.9367317-.3278129 1.498633-1.2759292 1.3306211-2.2452049-.168012-.9692758-1.017067-1.6777749-2.0106211-1.6777749s-1.8426091.7084991-2.0106211 1.6777749c-.1680119.9692757.3938894 1.917392 1.3306211 2.2452049v2.8158846h-12.24000013zm12.24-2.4483846c0-.3717302.3044464-.673077.68-.673077s.68.3013468.68.673077c0 .3717301-.3044464.6730769-.68.6730769-.3753672-.0004451-.6795504-.3015313-.68-.6730769zm-14.96 6.7307692c.00044963-.3715456.30463277-.6726319.68-.6730769h29.92c.3753672.000445.6795504.3015313.68.6730769v1.3461538c-.0004496.3715457-.3046328.6726319-.68.673077h-29.92c-.37536723-.0004451-.67955037-.3015313-.68-.673077z" fill-rule="nonzero"/></g></svg>

<?xml version="1.0" encoding="UTF-8"?>
<svg width="40px" height="40px" viewBox="0 0 40 40" version="1.1" xmlns="http://www.w3.org/2000/svg" xmlns:xlink="http://www.w3.org/1999/xlink">
    <!-- Generator: sketchtool 52.4 (67378) - http://www.bohemiancoding.com/sketch -->
    <title>F2D59F71-1629-46A6-8112-2EF659664583</title>
    <desc>Created with sketchtool.</desc>
    <g id="Page-1" stroke="none" stroke-width="1" fill="none" fill-rule="evenodd">
        <g id="Wunder-Careers-04-Cultures" transform="translate(-233.000000, -1742.000000)" fill="#04DE47">
            <g id="Team-Spirit-Copy" transform="translate(208.000000, 1007.000000)">
                <g id="Enginiering-Copy-4" transform="translate(0.000000, 514.000000)">
                    <g id="Group-18" transform="translate(25.000000, 221.000000)">
                        <g id="speech" transform="translate(3.000000, 3.000000)">
                            <rect id="Rectangle" opacity="0.149999991" x="1.36" y="25.5769231" width="31.28" height="2.69230769" rx="0.673076923"></rect>
                            <path d="M17,1.34615385 C16.5310873,1.36085889 16.0684027,1.4567637 15.632928,1.62951923 C17.6401788,2.35910213 18.9918055,4.23030926 19.04,6.34630769 C19.04,9.37434615 17.53992,12.1820192 15.64,13.1259423 C16.0605057,13.3417382 16.5263631,13.4566941 17,13.4615385 C19.491248,13.4615385 21.76,10.0701731 21.76,6.34630769 C21.7021235,3.71854594 19.646668,1.55938766 17,1.34615385 Z" id="Path" opacity="0.149999991"></path>
                            <path d="M31.96,24.2307692 L31.28,24.2307692 L31.28,21.9676154 C31.2802685,20.8903548 30.6317603,19.9166406 29.631408,19.4923077 L22.143384,16.3153846 C21.87726,16.2033012 21.6543299,16.0099049 21.507176,15.7634615 C21.0350081,14.9596652 20.7046519,14.0821151 20.530288,13.1684808 C22.2306064,11.2983243 23.1554359,8.86201217 23.12,6.34630769 C23.0547256,2.97867676 20.3955515,0.221170751 17,0 C13.5901859,0.190780152 10.9139411,2.96598811 10.88,6.34630769 C10.8443894,8.86217911 11.7691786,11.2987054 13.469576,13.1690192 C13.2951528,14.0824676 12.9647983,14.9598309 12.492688,15.7634615 C12.3455341,16.0099049 12.122604,16.2033012 11.85648,16.3153846 L4.368592,19.4923077 C3.36823973,19.9166406 2.71973152,20.8903548 2.72,21.9676154 L2.72,24.2307692 L2.04,24.2307692 C0.91333911,24.2307692 1.37976165e-16,25.1348096 0,26.25 L0,27.5961538 C0.0016534108,28.6543831 0.83064178,29.5307483 1.897336,29.6019231 C3.23459465,30.260607 4.15743924,31.5299159 4.363696,32.9942308 C4.363696,33.3659609 4.66814237,33.6673077 5.043696,33.6673077 C5.41924963,33.6673077 5.723696,33.3659609 5.723696,32.9942308 C5.63491039,31.7102793 5.06515071,30.5053619 4.125968,29.6153846 L30.157728,29.6153846 C29.2185453,30.5053619 28.6487856,31.7102793 28.56,32.9942308 C28.56,33.3659609 28.8644464,33.6673077 29.24,33.6673077 C29.6155536,33.6673077 29.92,33.3659609 29.92,32.9942308 C30.1352323,31.4781077 31.1135826,30.1739251 32.5176,29.5315192 L32.524672,29.5269423 C33.3960457,29.2804696 33.9976199,28.4931786 34,27.5961538 L34,26.25 C34,25.7144667 33.785072,25.2008675 33.4024978,24.8221882 C33.0199236,24.443509 32.5010416,24.2307692 31.96,24.2307692 Z M17,1.34615385 C19.646668,1.55938766 21.7021235,3.71854594 21.76,6.34630769 C21.76,10.0701731 19.491248,13.4615385 17,13.4615385 C14.508752,13.4615385 12.24,10.0701731 12.24,6.34630769 C12.2716366,3.70798314 14.3411211,1.53408799 17,1.34615385 Z M4.08,21.9676154 C4.07976128,21.4291506 4.4041039,20.9424784 4.904296,20.7307692 L12.392592,17.5538462 C12.9236081,17.329941 13.3683665,16.9438138 13.66188,16.4518846 C14.0940974,15.7216217 14.4296414,14.9393727 14.660256,14.1243846 C16.0842312,15.0358487 17.9159048,15.0358487 19.33988,14.1243846 C19.5705171,14.9390872 19.9059171,15.7210941 20.337848,16.4512115 C20.6315148,16.9434906 21.076501,17.329939 21.607816,17.5541154 L29.095704,20.7310385 C29.5958052,20.9427092 29.9201298,21.4292484 29.92,21.9676154 L29.92,24.2307692 L17.68,24.2307692 L17.68,21.4148846 C18.6167317,21.0870717 19.178633,20.1389554 19.0106211,19.1696797 C18.8426091,18.2004039 17.9935541,17.4919048 17,17.4919048 C16.0064459,17.4919048 15.1573909,18.2004039 14.9893789,19.1696797 C14.821367,20.1389554 15.3832683,21.0870717 16.32,21.4148846 L16.32,24.2307692 L4.07999987,24.2307692 L4.08,21.9676154 Z M16.32,19.5192308 C16.32,19.1475006 16.6244464,18.8461538 17,18.8461538 C17.3755536,18.8461538 17.68,19.1475006 17.68,19.5192308 C17.68,19.8909609 17.3755536,20.1923077 17,20.1923077 C16.6246328,20.1918626 16.3204496,19.8907764 16.32,19.5192308 Z M1.36,26.25 C1.36044963,25.8784544 1.66463277,25.5773681 2.04,25.5769231 L31.96,25.5769231 C32.3353672,25.5773681 32.6395504,25.8784544 32.64,26.25 L32.64,27.5961538 C32.6395504,27.9676995 32.3353672,28.2687857 31.96,28.2692308 L2.04,28.2692308 C1.66463277,28.2687857 1.36044963,27.9676995 1.36,27.5961538 L1.36,26.25 Z" id="Shape" fill-rule="nonzero"></path>
                        </g>
                    </g>
                </g>
            </g>
        </g>
    </g>
</svg>
